X: 1787
T: Solgun Durma, İsteklen
C: Münir Nurettin Selçuk
O: Turkey
F: http://compmusic.upf.edu/node/140
N: huzzam--sarki--sofyan--solgun_durma--munir_nurettin_selcuk
N: makam= huzzam
N: form= sarki
N: usul= sofyan = 4/4
M: 4/4
L: 1/16
K: C _1/4B _3/4e ^3/4f 
Q: 1/4=78
%%MIDI tuningsystem comma53
G2BB2BB2 .G.BG2 B4  | G2BB2BB2 .G.BG2 B4  | \
w:  ARANAĞME  |   | 
z2fg a2gf f2ef g2fe  | 
w:   | 
d3/2c/de fgfe dcBc d4  | z2fg a2gf f2ef g2fe  | 
w:   |   | 
d3/2c/de fgfe dccB B4  | G2BB2BB2 .G.BG2 B4  | 
w:   |  SAZ  | 
c2d14  | d16  | B2c2 d2d2 dccB d4  | de2d aggf feed dcB^1/4A  | 
w:  Of  of   |   |  Sol gun  dur ma  is *  tek *  len   |  Se vin  *  a *  çıl  *  çi *  çek *  len    | 
B2c2 d2d2 dccB d4  | de2d aggf f3e feed  | 
w:  Sol gun  dur ma  is *  tek *  len   |  Se vin  *  a *  çıl  *  çi *  çek  | 
d2AB cd=ef g3/2f/^3/4eg f4  | f2f2 ff3 ff3 fged  | 
w:  len   SAZ  |  Gel  sen  de  bi ze  ek len   | 
zg2g gfg2 gfga gfed  | de2d agfe d3c dccB  | 
w:  gon ca lar dan_ ör nek *  *  *  len   |  Se vin  *  a *  çıl  *  çi *  çek  | 
B2d4cB B2e4dc  | de2d agfe d3c dccB  | 
w:  len  ah  *  *  *  ah   |  Se vin  *  a *  çıl  *  çi *  çek  | 
B6B2 .G.BG2 B4  | G2BB2BB2 .G.BG2 B4  | \
w:  len   SAZ  |   | 
c2{c}d14  | d16  | d3/2c/d2 d3/2c/d2 d3/2c/d2 d3/2c/d2  | 
w:  Hey   |   |   | 
d3/2c/d2 d8 d4  | Bc2B dd3 dccB d4  | \
w:   |  Bu gün  *  de  bir  ya *  rın  *  da   | 
de2d aggf feed dcB^1/4A  | 
w:  Şu  e *  lem  *  di *  yâ *  rın *  da    | 
Bc2B dd3 dccB d4  | de2d aggf f3e feed  | 
w:  Bu gün  *  de  bir  ya *  rın  *  da   |  Şu  e *  lem  *  di *  yâ *  rın  | 
d2AB cd=ef g3/2f/^3/4eg f4  | f3f f2f2 f2f2 fged  | 
w:  da   SAZ  |  Öm rü mün  ba ha rın da   | 
zg2g gfg2 gfga gfed  | de2d agfe d3c dccB  | 
w:  Gon ca lar dan_ ör nek *  *  *  len   |  Se vin  *  a *  çıl  *  çi *  çek  | 
B2d4cB B2e4dc  | de2d agfe d3c dccB  | 
w:  len  ah  *  *  *  ah   |  Se vin  *  a *  çıl  *  çi *  çek  | 
B6fe dcB^A B4  | z2fg a2gf z2ef g2fe  | \
w:  len  SAZ  |  SAZ  | 
dcde fgfe dcBc d4  | 
w:  SAZ  | 
z2fg a2gf z2ef g2fe  | d3/2c/de f2ed dccB B4  | 
w:  SAZ  |  SAZ  | 
g2bb bbb2 b/c'/d'/e'/d'/c'/b/^a/ b4  | \
w:  SAZ  | 
b2b14  | b^3/4ab2 bab2 bab2 bab2  | 
w:  Of  of   |   | 
z2{b}d'6 d'8  | d'3/2c'/d'2 d'3/2c'/d'2 d'3/2c'/d'2 d'2c'2  | \
w:  *  of   |   | 
c'12 c'd'c'b  | b16  | g2bb bbb2 gbg2 b4  | 
w:   |  of   |  SAZ  | 
b3b b2b2 {b}c'2b^3/4a b4  | {b}d'd'2c' c'bb^3/4a a2ab a/g/f/^3/4e/f2  | 
w:  Aşk  gü zel  ha *  yat  gü *  zel    |  *  Se viş *  mek  *  kat  *  kat  gü *  zel   | 
b3b b2b2 {b}c'2b^3/4a b4  | {b}d'd'2c' c'bb^3/4a a3g ag2f  | \
w:  Aşk  gü zel  ha *  yat  gü *  zel    |  *  Se viş *  mek  *  kat  *  kat  *  gü  | 
f2c'4b^3/4a agf^e f4  | 
w:  zel  *  a *  man  *  a *  man    | 
f3f f2f2 f2f2 fged  | g2g2 gfg2 gfga gfed  | 
w:  Gel  bu  zev ki  tat  gü zel   |  Bül bül  gi bi  *  â *  henk *  len   | 
de2d agfe d3c dccB  | B2d4cB B2e4dc  | 
w:  Se vin  *  a *  çıl  *  çi *  çek  |  len  ah  *  *  *  ah   | 
de2d agfe d3c dccB  | B2G^A Bcde gf^eg f4  | 
w:  Se vin  *  a *  çıl  *  çi *  çek  |  len   SAZ  | 
f3f f2f2 f2f2 fged  | g2g2 gfg2 gfga gfed  | 
w:  Gel  bu  zev ki  tat  gü zel   |  Bül bül  gi bi  *  â *  henk *  len   | 
de2d agfe d3c dccB  | B2d4cB B2e4dc  | 
w:  Se vin  *  a *  çıl  *  çi *  çek  |  len  ah  *  *  *  ah   | 
de2d agfe d3c dccB  | B8 GBG2 B4  | |


